logo/bamboo.svg

<?xml version="1.0" encoding="UTF-8"?>
<svg width="256px" height="296px" viewBox="0 0 256 296" version="1.1" xmlns="http://www.w3.org/2000/svg" xmlns:xlink="http://www.w3.org/1999/xlink" preserveAspectRatio="xMidYMid">
    <defs>
        <linearGradient x1="50.015868%" y1="-98.2986767%" x2="50.015868%" y2="38.2167612%" id="linearGradient-1">
            <stop stop-color="#0052CC" offset="0%"></stop>
            <stop stop-color="#2684FF" offset="100%"></stop>
        </linearGradient>
        <linearGradient x1="50.0157183%" y1="0.763358779%" x2="50.0157183%" y2="138.581425%" id="linearGradient-2">
            <stop stop-color="#0052CC" offset="0%"></stop>
            <stop stop-color="#2684FF" offset="100%"></stop>
        </linearGradient>
    </defs>
		<g>
				<path d="M247.205647,167.895843 L185.805804,167.895843 C181.801013,167.850569 178.374932,170.762737 177.774431,174.72251 C174.286852,199.674786 152.933797,218.234463 127.73898,218.212392 L144.363922,294.14902 C204.596151,286.279791 250.95582,237.082461 255.23702,176.489412 C255.393206,174.263743 254.616512,172.073407 253.093078,170.443333 C251.569644,168.813259 249.436782,167.89037 247.205647,167.895843 Z" fill="#2684FF"></path>
				<path d="M140.950588,165.968314 L229.295686,90.0316863 C231.024443,88.5070664 232.014805,86.3131655 232.014805,84.0081569 C232.014805,81.7031483 231.024443,79.5092473 229.295686,77.9846275 L140.950588,1.92752941 C138.566824,-0.0845072949 135.23364,-0.534256453 132.40186,0.774042915 C129.570081,2.08234228 127.752005,4.91200514 127.73898,8.03137255 L127.73898,159.864471 C127.752005,162.983838 129.570081,165.813501 132.40186,167.1218 C135.23364,168.4301 138.566824,167.98035 140.950588,165.968314 Z" fill="#2684FF"></path>
				<path d="M1.20470588,184.480627 C9.65441843,247.916976 63.7423708,295.31045 127.73898,295.353725 L127.73898,218.212392 C99.9303626,218.212471 77.3683826,195.704382 77.3019608,167.895843 L1.20470588,184.480627 Z" fill="url(#linearGradient-1)"></path>
				<path d="M0,166.691137 L0,167.895843 L77.3019608,167.895843 C77.3683826,140.087305 99.9303626,117.579215 127.73898,117.579294 L111.154196,41.6426667 C48.1449965,49.8531147 0.766538803,103.15388 0,166.691137" fill="url(#linearGradient-2)"></path>
		</g>
</svg>

<svg viewBox="0 0 256 296" xmlns="http://www.w3.org/2000/svg" xmlns:xlink="http://www.w3.org/1999/xlink"><defs><linearGradient id="a" x1="50.015%" x2="50.015%" y1="-98.299%" y2="38.216%"><stop offset="0%" stop-color="#0052CC"/><stop offset="100%" stop-color="#2684FF"/></linearGradient><linearGradient id="b" x1="50.015%" x2="50.015%" y1=".763%" y2="138.581%" xlink:href="#a"/></defs><g fill="#2684FF"><path d="M247.2 167.89h-61.4c-4.01-.05-7.44 2.86-8.04 6.82 -3.49 24.95-24.85 43.51-50.04 43.48l16.62 75.93c60.23-7.87 106.59-57.07 110.87-117.66 .15-2.23-.63-4.42-2.15-6.05 -1.53-1.64-3.66-2.56-5.89-2.55Z"/><path d="M140.95 165.96l88.34-75.94c1.72-1.53 2.71-3.72 2.71-6.03s-1-4.5-2.72-6.03L140.93 1.9c-2.39-2.02-5.72-2.47-8.55-1.16 -2.84 1.3-4.65 4.13-4.67 7.25v151.83c.01 3.11 1.83 5.94 4.66 7.25 2.83 1.3 6.16.85 8.54-1.16Z"/></g><path fill="url(#a)" d="M1.2 184.48c8.44 63.43 62.53 110.82 126.53 110.87V218.2c-27.81 0-50.38-22.51-50.44-50.32l-76.1 16.58Z"/><path fill="url(#b)" d="M0 166.69v1.2h77.3c.06-27.81 22.62-50.32 50.43-50.32l-16.59-75.94C48.13 49.84.75 103.14-.02 166.67"/></svg>
